assets/fonts/svg-files-for-custom-font/xing.svg

<svg enable-background="new 0 0 20 20" viewBox="0 0 20 20" xmlns="http://www.w3.org/2000/svg"><path d="m17.703 1h-2.828c-.223 0-.553.105-.69.381s-.31.619-.31.619l-5 10 3 6s.172.344.31.619.467.381.69.381h2.828c.5 0 .48-.381.355-.631s-.183-.369-.183-.369l-3-6 5-10s.059-.119.184-.369.144-.631-.356-.631zm-10.888 4.381c-.137-.276-.467-.381-.69-.381h-2.828c-.5 0-.48.381-.355.631s.183.369.183.369l1.25 2.5-2.25 4.5s-.059.119-.184.369-.144.631.356.631h2.828c.223 0 .553-.106.691-.381.137-.275.309-.619.309-.619l2.25-4.5-1.25-2.5s-.172-.344-.31-.619z"/></svg>

<?xml version="1.0" encoding="utf-8"?>
<!-- Generator: Adobe Illustrator 18.1.1, SVG Export Plug-In . SVG Version: 6.00 Build 0)  -->
<!DOCTYPE svg PUBLIC "-//W3C//DTD SVG 1.1//EN" "http://www.w3.org/Graphics/SVG/1.1/DTD/svg11.dtd">
<svg version="1.1" id="Xing" xmlns="http://www.w3.org/2000/svg" xmlns:xlink="http://www.w3.org/1999/xlink" x="0px" y="0px"
	 viewBox="0 0 20 20" enable-background="new 0 0 20 20" xml:space="preserve">
<path d="M17.703,1h-2.828c-0.223,0-0.553,0.105-0.69,0.381S13.875,2,13.875,2l-5,10l3,6c0,0,0.172,0.344,0.31,0.619
	S12.652,19,12.875,19h2.828c0.5,0,0.48-0.381,0.355-0.631S15.875,18,15.875,18l-3-6l5-10c0,0,0.059-0.119,0.184-0.369
	S18.203,1,17.703,1z M6.815,5.381C6.678,5.105,6.348,5,6.125,5H3.297c-0.5,0-0.48,0.381-0.355,0.631S3.125,6,3.125,6l1.25,2.5
	L2.125,13c0,0-0.059,0.119-0.184,0.369S1.797,14,2.297,14h2.828c0.223,0,0.553-0.106,0.691-0.381C5.953,13.344,6.125,13,6.125,13
	l2.25-4.5L7.125,6C7.125,6,6.953,5.656,6.815,5.381z"/>
</svg>
